X:1
T:Title
%%score 1 { 2 | 3 }
L:1/8
Q:1/4=108
M:4/4
K:Bb
V:1 treble nm="Grand Piano, Soprano"
V:2 bass nm="Choir Pad, Eskişehir, Victor Benke 1903"
V:3 bass 
V:1
 [EG]2 [EG]2 [EB]2 [E_A]2 | [EG]3 [EG] [DG]2 [DF]2 | [CE]2 [EF]2 [EG]2 [Ec]2 | [DF]3 [D^F] [EG]4 | %4
w: By~Victor~H.~Benke,~1903 * * *||||
 [EG]2 [EG]2 [Ge]2 [Ge]2 | [^Fd]3 [FA] [Fc]2 [GB]2 | [=EB]2 [EB]2 [FB]2 [Fd]2 | %7
w: |||
 [=Ed]3 [_Ec] [DB]4 | [D_A]2 [EA]2 [FA]2 [DF]2 | [EB]3 [Ec] [Dc]2 [DB]2 | %10
w: |||
 [Ee]2 [_Ad]2 [Gc]2 [FB]2 | [EB]3 [F_A] [EG]4 | [GB]2 [GB]2 [Gc]2 [GB]2 | %13
w: |||
 [^FA]3 [=Fe] [Ge]2 [GB]2 | [EB]2 [E_A]2 [CG]2 [=B,F]2 | [B,E]3 [B,F] [B,E]4- | [B,E]4 z4 |] %17
w: ||||
V:2
 B,2 B,2 G,2 _A,2 | B,3 C B,2 A,2 | G,2 A,2 B,2 A,2 | _A,3 A, B,4 | B,2 B,2 B,2 A,2 | %5
 _A,3[K:treble] D E2 D2 | C2 _D2 =D2[K:bass] B,2 | B,3 A, B,4 | B,2 B,2 B,2 B,2 | B,3 A, _A,2 B,2 | %10
 B,2 B,2 B,2 B,2 | B,3 B, B,4 | E2 D2 _D2 D2 | C3 =B, _B,2 _D2 | _D2 C2[K:bass] B,2 _A,2 | %15
 G,3 _A, G,4- | G,4 z4 |] %17
V:3
 E,2 D,2 _D,2 C,2 | B,,3 A,, B,,2 =B,,2 | C,2 =B,,2 _B,,2 B,,2 | B,,3 B,, E,4 | E,2 D,2 C,2 C,2 | %5
 D,3 D, G,2 G,2 | G,2 ^F,2 =F,2 F,2 | C,3 F, B,,4 | B,,2 C,2 D,2 _A,2 | G,3 ^F, =F,2 _A,2 | %10
 G,2 F,2 E,2 D,2 | C,3 D, E,4 | E,2 E,2 E,2 E,2 | E,3 E, E,2 E,2 | _A,2 A,2 _A,,2 A,,2 | %15
 B,,3 B,, E,4- | E,4 z4 |] %17

